antibot/app/images/dist/vk-icon.svg

<svg width="30" height="30" viewBox="0 0 30 30" fill="none" xmlns="http://www.w3.org/2000/svg">
<g clip-path="url(#clip0_34_10920)">
<path d="M0 14.4C0 7.61175 0 4.21766 2.10883 2.10883C4.21766 0 7.61175 0 14.4 0H15.6C22.3883 0 25.7823 0 27.8912 2.10883C30 4.21766 30 7.61175 30 14.4V15.6C30 22.3883 30 25.7823 27.8912 27.8912C25.7823 30 22.3883 30 15.6 30H14.4C7.61175 30 4.21766 30 2.10883 27.8912C0 25.7823 0 22.3883 0 15.6V14.4Z" fill="#0077FF"/>
<path d="M15.9625 21.6125C9.125 21.6125 5.22506 16.925 5.06256 9.125H8.48756C8.60006 14.85 11.125 17.275 13.125 17.775V9.125H16.3501V14.0625C18.3251 13.85 20.3999 11.6 21.0999 9.125H24.3249C23.7874 12.175 21.5374 14.425 19.9374 15.35C21.5374 16.1 24.1001 18.0625 25.0751 21.6125H21.5249C20.7624 19.2375 18.8626 17.4 16.3501 17.15V21.6125H15.9625Z" fill="white"/>
</g>
<defs>
<clipPath id="clip0_34_10920">
<rect width="30" height="30" fill="white"/>
</clipPath>
</defs>
</svg>

<svg width="30" height="30" fill="none" xmlns="http://www.w3.org/2000/svg"><g clip-path="url(#a)"><path d="M0 14.4C0 7.612 0 4.218 2.109 2.109S7.612 0 14.4 0h1.2c6.788 0 10.182 0 12.291 2.109S30 7.612 30 14.4v1.2c0 6.788 0 10.182-2.109 12.291S22.388 30 15.6 30h-1.2c-6.788 0-10.182 0-12.291-2.109S0 22.388 0 15.6v-1.2Z" fill="#07F"/><path d="M15.963 21.613c-6.838 0-10.738-4.688-10.9-12.488h3.425c.112 5.725 2.637 8.15 4.637 8.65v-8.65h3.225v4.938c1.975-.213 4.05-2.463 4.75-4.938h3.225c-.538 3.05-2.788 5.3-4.388 6.225 1.6.75 4.163 2.713 5.138 6.263h-3.55c-.763-2.375-2.662-4.213-5.175-4.463v4.463h-.388Z" fill="#fff"/></g><defs><clipPath id="a"><path fill="#fff" d="M0 0h30v30H0z"/></clipPath></defs></svg>
